src/shared/assets/random-match/icon-mic.svg

<svg width="36" height="36" viewBox="0 0 36 36" fill="none" xmlns="http://www.w3.org/2000/svg">
<path fill-rule="evenodd" clip-rule="evenodd" d="M14.6284 10.2689C15.47 9.45708 16.6354 9.00293 17.9735 9.00293C19.3116 9.00293 20.4769 9.45708 21.3186 10.2689C22.1589 11.0794 22.6393 12.2102 22.6798 13.5007C22.6989 14.1065 22.7104 14.8033 22.7104 15.6029C22.7104 16.4026 22.6989 17.0993 22.6798 17.7052C22.6393 18.9957 22.1589 20.1265 21.3186 20.9369C20.4769 21.7488 19.3116 22.2029 17.9735 22.2029C16.6354 22.2029 15.47 21.7488 14.6284 20.9369C13.7881 20.1265 13.3077 18.9957 13.2671 17.7052C13.2481 17.0993 13.2366 16.4026 13.2366 15.6029C13.2366 14.8033 13.2481 14.1065 13.2671 13.5007C13.3077 12.2102 13.7881 11.0794 14.6284 10.2689ZM12.0238 16.2029C12.0865 16.2029 12.1483 16.2064 12.2091 16.2133C12.2134 16.7733 12.2235 17.2791 12.2378 17.7357C12.2855 19.2518 12.8546 20.6355 13.9027 21.6465C14.9545 22.6609 16.3888 23.2029 17.9735 23.2029C19.5582 23.2029 20.9925 22.6609 22.0443 21.6465C23.0924 20.6355 23.6615 19.2518 23.7091 17.7357C23.7235 17.2775 23.7336 16.7697 23.7379 16.2073C23.7779 16.2044 23.8183 16.2029 23.859 16.2029H24.3054C25.2287 16.2029 25.9642 16.9497 25.9409 17.8376C25.8392 21.7043 23.384 24.5523 19.7119 25.2421C19.6882 25.4668 19.6603 25.6912 19.628 25.9155C19.5501 26.455 19.1206 26.9447 18.4764 26.9874C18.335 26.9968 18.1682 27.0029 17.9737 27.0029C17.7791 27.0029 17.6123 26.9968 17.4709 26.9874C16.8268 26.9447 16.3966 26.455 16.3198 25.9142C16.2887 25.6955 16.2618 25.4751 16.2387 25.2546C12.53 24.5875 10.0442 21.7289 9.94195 17.8376C9.91861 16.9497 10.6541 16.2029 11.5774 16.2029H12.0238Z" fill="#E8CE83"/>
</svg>

<svg xmlns="http://www.w3.org/2000/svg" fill="none" viewBox="0 0 36 36"><path fill="#e8ce83" fill-rule="evenodd" d="M14.628 10.269c.842-.812 2.007-1.266 3.346-1.266s2.503.454 3.345 1.266c.84.81 1.32 1.941 1.36 3.232.02.606.031 1.302.031 2.102s-.011 1.496-.03 2.102c-.04 1.29-.521 2.422-1.361 3.232-.842.812-2.007 1.266-3.345 1.266s-2.504-.454-3.346-1.266c-.84-.81-1.32-1.941-1.36-3.232a67 67 0 0 1-.031-2.102c0-.8.011-1.496.03-2.102.04-1.29.521-2.422 1.361-3.232m-2.604 5.934q.094 0 .185.01.006.839.029 1.523c.048 1.516.617 2.9 1.665 3.91 1.051 1.015 2.486 1.557 4.07 1.557s3.02-.542 4.071-1.556c1.048-1.011 1.617-2.395 1.665-3.911q.023-.686.029-1.529.06-.004.121-.004h.446c.924 0 1.66.747 1.636 1.635-.102 3.866-2.557 6.714-6.23 7.404q-.034.338-.083.674a1.24 1.24 0 0 1-1.152 1.071 8 8 0 0 1-1.005 0 1.24 1.24 0 0 1-1.151-1.073q-.047-.328-.081-.66c-3.709-.667-6.195-3.525-6.297-7.416-.023-.888.712-1.635 1.635-1.635z" clip-rule="evenodd"/></svg>
